svg/24/bug.svg

<svg width="24" height="24" viewBox="0 0 24 24" fill="currentColor" xmlns="http://www.w3.org/2000/svg"><path fill-rule="evenodd" clip-rule="evenodd" d="M10 2.75067C10 2.33646 9.66421 2.00067 9.25 2.00067C8.83579 2.00067 8.5 2.33646 8.5 2.75067V5.12605C7.65883 5.73116 6.98067 6.54866 6.54403 7.50003L6.53717 7.5H3.74695C3.33274 7.5 2.99695 7.83579 2.99695 8.25C2.99695 8.66421 3.33274 9 3.74695 9H6.08296C6.0284 9.32521 6 9.65929 6 10V11.5L5.99695 11.5H3.74695C3.33273 11.5 2.99695 11.8358 2.99695 12.25C2.99695 12.6642 3.33273 13 3.74695 13H5.99695L6 13V15C6 15.1684 6.00694 15.3351 6.02054 15.5H3.76611C3.3519 15.5 3.01611 15.8358 3.01611 16.25C3.01611 16.6642 3.3519 17 3.76611 17H6.34141C7.16508 19.3304 9.38756 21 12 21C14.6124 21 16.8349 19.3304 17.6586 17H20.25C20.6642 17 21 16.6642 21 16.25C21 15.8358 20.6642 15.5 20.25 15.5H17.9795C17.9931 15.3351 18 15.1684 18 15V13H20.25C20.6642 13 21 12.6642 21 12.25C21 11.8358 20.6642 11.5 20.25 11.5H18V10C18 9.65929 17.9716 9.32521 17.917 9L20.2519 9C20.6661 9 21.0019 8.66421 21.0019 8.25C21.0019 7.83579 20.6661 7.5 20.2519 7.5L17.456 7.5C17.0193 6.54864 16.3412 5.73116 15.5 5.12605V2.75067C15.5 2.33646 15.1642 2.00067 14.75 2.00067C14.3358 2.00067 14 2.33646 14 2.75067V4.34141C13.3744 4.12031 12.7013 4 12 4C11.2987 4 10.6256 4.12031 10 4.34141V2.75067ZM7.5 15V10.5L11.25 10.5C11.25 13.4793 11.25 16.4585 11.25 19.4378C9.12172 19.0807 7.5 17.2297 7.5 15ZM16.5 15C16.5 17.2297 14.8783 19.0807 12.75 19.4378C12.75 16.4585 12.75 13.4793 12.75 10.5H16.5V15ZM12 5.5C14.1416 5.5 15.9338 6.99601 16.3885 9L7.61151 9C8.06624 6.99601 9.85841 5.5 12 5.5Z"/></svg>

<svg xmlns="http://www.w3.org/2000/svg" width="24" height="24" fill="currentColor" viewBox="0 0 24 24">
  <path fill-rule="evenodd" d="M10 2.75a.75.75 0 1 0-1.5 0v2.376A6.024 6.024 0 0 0 6.544 7.5H3.747a.75.75 0 0 0 0 1.5h2.336A6.04 6.04 0 0 0 6 10v1.5H3.747a.75.75 0 1 0 0 1.5H6v2c0 .168.007.335.02.5H3.767a.75.75 0 1 0 0 1.5h2.576a6.003 6.003 0 0 0 11.317 0h2.591a.75.75 0 0 0 0-1.5h-2.27a6.37 6.37 0 0 0 .02-.5v-2h2.25a.75.75 0 0 0 0-1.5H18V10c0-.34-.028-.675-.083-1h2.335a.75.75 0 0 0 0-1.5h-2.796A6.024 6.024 0 0 0 15.5 5.126V2.751a.75.75 0 0 0-1.5 0v1.59a5.99 5.99 0 0 0-2-.34 5.99 5.99 0 0 0-2 .34v-1.59ZM7.5 15v-4.5h3.941a.747.747 0 0 0-.19.5v8.438A4.501 4.501 0 0 1 7.5 15Zm9 0c0 2.23-1.622 4.08-3.75 4.438V11a.747.747 0 0 0-.19-.5h3.94V15ZM12 5.5A4.502 4.502 0 0 1 16.39 9H7.612A4.502 4.502 0 0 1 12 5.5Z" clip-rule="evenodd"/>
</svg>
